icons/badge/slash/triangle.svg

<svg width="32" height="32" viewBox="0 0 32 32" xmlns="http://www.w3.org/2000/svg"><path fill-rule="evenodd" clip-rule="evenodd" d="M14.2901 3C13.7518 3 13.2548 3.28843 12.9878 3.75579L1.28504 24.2356C1.00315 24.7289 1.02417 25.3391 1.33933 25.8118L3.01948 28.3321C3.29768 28.7493 3.76603 29 4.26756 29H27.7324C28.2339 29 28.7023 28.7493 28.9805 28.3321L30.6606 25.8118C30.9758 25.3391 30.9968 24.7289 30.7149 24.2356L19.0122 3.75579C18.7451 3.28843 18.2481 3 17.7098 3H14.2901ZM3.17484 24.9595L14.5803 5H17.4196L28.8251 24.9595L27.4648 27H4.53515L3.17484 24.9595ZM19.6943 15.4789L7.79351 23.119L8.87399 24.802L20.7747 17.1619L19.6943 15.4789Z"/></svg>

<svg viewBox="0 0 32 32" xmlns="http://www.w3.org/2000/svg"><path fill-rule="evenodd" d="M14.29 3a1.5 1.5 0 00-1.302.756L1.285 24.236a1.5 1.5 0 00.054 1.576l1.68 2.52A1.5 1.5 0 004.268 29h23.464a1.5 1.5 0 001.248-.668l1.68-2.52a1.5 1.5 0 00.055-1.576L19.012 3.756A1.5 1.5 0 0017.71 3h-3.42zM3.175 24.96L14.58 5h2.84l11.405 19.96-1.36 2.04H4.535l-1.36-2.04zm16.52-9.481l-11.901 7.64 1.08 1.683 11.9-7.64-1.08-1.683z"/></svg>
